shader dirt (
    color Cin=1,
    float pscale=20.0,
    float xscale=0.1,
    float yscale=1,
    float zscale=1,
    float dirtValue=0.75,
    float dirtCutoff=0.6,
    output color resultRGB=0,
    output float resultA=0
)
{
    point PP = P * pscale;
    PP[0] *= xscale;
    PP[1] *= yscale;
    PP[2] *= zscale;

    float dirt = (float)noise("perlin", PP);

    resultRGB = mix(Cin, Cin * dirtValue, dirt);

    if (dirt > dirtCutoff)
    {
        resultA = dirt;
    }
}